li/social-linkedin.svg

<svg class="social-linkedin" role="img" focusable="false" aria-hidden="true" xmlns="http://www.w3.org/2000/svg" viewBox="0 0 14 14" height="1em" width="1em">
  <path d="m 3.931553,2.47617 c 0,0.81531 -0.655573,1.47621 -1.464262,1.47621 -0.808689,0 -1.464262,-0.6609 -1.464262,-1.47621 C 1.003029,1.6609 1.658602,1 2.467291,1 3.27601,1 3.931553,1.6609 3.931553,2.47617 Z m -0.214252,2.52382 -2.476223,0 0,8.00001 2.476223,0 0,-8.00001 z m 3.958281,0 -2.37498,0 0,8.00001 2.37498,0 c 0,0 0,-2.96729 0,-4.19945 0,-1.12497 0.517835,-1.79461 1.508942,-1.79461 0.910719,0 1.348223,0.64285 1.348223,1.79461 0,1.1518 0,4.19945 0,4.19945 l 2.464224,0 c 0,0 0,-2.92264 0,-5.06549 0,-2.14284 -1.214243,-3.17857 -2.910699,-3.17857 -1.696457,0 -2.410719,1.32143 -2.410719,1.32143 l 0,-1.07738 z"/>
</svg>

<svg class="social-linkedin" aria-hidden="true" xmlns="http://www.w3.org/2000/svg" viewBox="0 0 14 14" height="1em" width="1em">
  <path d="M3.932 2.476a1.47 1.47 0 0 1-1.465 1.476 1.47 1.47 0 0 1-1.464-1.476A1.47 1.47 0 0 1 2.467 1c.809 0 1.465.66 1.465 1.476ZM3.717 5H1.241v8h2.476V5zm3.959 0H5.3v8h2.375V8.8c0-1.124.517-1.794 1.509-1.794.91 0 1.348.643 1.348 1.795V13h2.464V7.935c0-2.143-1.214-3.18-2.91-3.18-1.697 0-2.411 1.322-2.411 1.322V5z"/>
</svg>
